X:1
T:Little Pine Siskin - D
L:1/8
M:4/4
R:Reel
K:D
A,B,|: "D"D2DE FEDF|"A"E2EEE2DE| "D"FABc d2c2|"G"B2BBB2BB|
|: "G"B4 d4|BAF2 "A"A4| "G"B2d2BAF2| "A"A6 A2|
|: "Em"E4 E2>F2| EDB,2 "A"A,2>D2| "Em"E2EF ED B,2| "A"A,4 A,B,D2| 

